X:33
T:Jerusalem Ridge
C:Bill Monroe
Z:Transcribed by Andy Shaw
Z:TablEdited by Larry Klose
S:MandoZine TablEdit Archives
L:1/8
Q:480
M:4/4
K:Am
 z8 |: "Am"A,C CD EE EE | ED CD ED CB, | A,C CD DA AG | "E"ED EG ED CG, | "Am"A,C CD E2 EE |
 ED CE DC A,G, | A,C CD EA AG |1 "E"EE DC "Am"A,2 A,A, :|2 "E"EE DC "Am"A,2 A,A |
 "Am"A2 A2 A2 A2 | AA AB cB AA | A2 A2 A2 A2 | ee eg "E"e2 e2 | "Am"AA AA AA AA |
 AB cB cB AA | A2 A2 A2 A2 | ED CA, A,2 AA | AA AA AA AA | AB cB cB AA | AA AA AA AA |
 ee eg "E"e2 e2 | "Am"AA AA AA AA | AB cB cB AA | A2 A2 AA AA | "E"GE DC "Am"A,2 z/z3/2 |
 "E"AA AG "Am"E2 EE | EG G2 "D"[A2D2] [AD][AD] | [AD][AD] ED "C"CC CC |
 "D"B,B, B,B, "Am"A,2 A,A, | A,A AG "Am"E2 EE | EG "C"G2 "D"[A2D2] [AD][AD] |
 DD ED "C"CC CC | "E"B,B, B,B, "Am"A,2 A,A, |
M:2/4
 A,2 e2 |
M:4/4
|: "Am"e2 a2 a3g | a2 b2 "C"c'4 | eg zz/4ag7/4 zg | zc' ag ed cd | "Am"ea ze a2 a2 |
 c'g ac' ga gd | e2 e2 ed cd | "E"ed cG "Am"A4 | A3c AG ED | "C"E3G ED CD |
 "E"ED CG, "Am"A,4 | z2 CB, A,4 |
M:2/4
 A,4 :|]
